public/logos/2P.svg

<?xml version="1.0" encoding="UTF-8"?>
<svg xmlns="http://www.w3.org/2000/svg" xmlns:xlink="http://www.w3.org/1999/xlink" width="176pt" height="34.74pt" viewBox="0 0 176 34.74" version="1.1">
<defs>
<clipPath id="clip1">
  <path d="M 121 19 L 134 19 L 134 34.738281 L 121 34.738281 Z M 121 19 "/>
</clipPath>
</defs>
<g id="surface1">
<path style=" stroke:none;fill-rule:nonzero;fill:rgb(18.1427%,21.751404%,56.787109%);fill-opacity:1;" d="M 0 30.667969 L 30.839844 30.667969 L 36.335938 0.00390625 Z M 0 30.667969 "/>
<path style=" stroke:none;fill-rule:nonzero;fill:rgb(95.262146%,68.899536%,6.88324%);fill-opacity:1;" d="M 32.089844 13.398438 L 32.34375 3.371094 L 31.5 4.085938 L 31.265625 13.484375 L 30.128906 17.65625 L 30.132812 17.65625 C 30.128906 17.65625 30.128906 17.65625 30.125 17.65625 L 30.128906 17.65625 L 28.183594 14.101562 L 27.144531 7.757812 L 26.414062 8.375 L 27.328125 14.101562 L 27.328125 18.574219 L 27.355469 18.566406 C 27.339844 18.574219 27.324219 18.578125 27.308594 18.585938 L 27.328125 18.578125 L 24.644531 15.429688 L 22.335938 11.820312 L 21.714844 12.34375 L 23.921875 15.796875 L 24.972656 19.816406 L 25 19.804688 C 24.980469 19.816406 24.960938 19.828125 24.945312 19.839844 L 24.972656 19.816406 L 21.386719 17.394531 L 19.117188 14.53125 L 18.511719 15.042969 L 20.757812 17.878906 L 22.777344 21.492188 L 18.660156 19.84375 L 15.644531 17.464844 L 15.035156 17.980469 L 18.140625 20.429688 L 20.988281 23.441406 L 21.019531 23.410156 C 21.003906 23.429688 20.988281 23.445312 20.972656 23.464844 L 20.988281 23.441406 L 16.523438 22.667969 L 11.894531 20.628906 L 11.242188 21.179688 L 16.132812 23.332031 L 19.546875 25.734375 L 19.570312 25.695312 C 19.554688 25.726562 19.542969 25.753906 19.527344 25.78125 L 19.546875 25.734375 L 15.148438 25.429688 L 8.378906 23.597656 L 7.675781 24.191406 L 14.890625 26.144531 L 18.613281 28.136719 L 14.253906 28.652344 L 3.136719 28.019531 L 2.304688 28.722656 L 14.140625 29.394531 L 18.167969 30.519531 L 33.328125 17.960938 L 32.089844 13.398438 "/>
<path style=" stroke:none;fill-rule:nonzero;fill:rgb(93.052673%,12.748718%,17.179871%);fill-opacity:1;" d="M 17.421875 30.667969 L 48.261719 30.667969 L 53.757812 0.00390625 Z M 17.421875 30.667969 "/>
<path style=" stroke:none;fill-rule:nonzero;fill:rgb(18.1427%,21.751404%,56.787109%);fill-opacity:1;" d="M 62.539062 22.800781 L 63.464844 22.800781 C 65.046875 22.800781 66.105469 22.699219 66.632812 22.5 C 67.164062 22.300781 67.582031 21.984375 67.886719 21.546875 C 68.191406 21.109375 68.34375 20.628906 68.34375 20.105469 C 68.34375 19.753906 68.265625 19.464844 68.109375 19.238281 C 67.957031 19.015625 67.734375 18.851562 67.453125 18.75 C 67.171875 18.644531 66.542969 18.59375 65.570312 18.59375 L 63.421875 18.59375 Z M 60.878906 30.769531 L 57.875 30.769531 L 60.925781 16.199219 L 66.851562 16.199219 C 67.90625 16.199219 68.738281 16.324219 69.351562 16.570312 C 69.964844 16.820312 70.449219 17.230469 70.808594 17.804688 C 71.167969 18.375 71.34375 19.0625 71.34375 19.855469 C 71.34375 20.59375 71.203125 21.308594 70.917969 22.003906 C 70.632812 22.699219 70.28125 23.257812 69.867188 23.675781 C 69.457031 24.089844 69.007812 24.410156 68.53125 24.625 C 68.054688 24.839844 67.414062 25.003906 66.605469 25.117188 C 66.132812 25.179688 65.253906 25.214844 63.960938 25.214844 L 62.039062 25.214844 L 60.878906 30.769531 "/>
<path style=" stroke:none;fill-rule:nonzero;fill:rgb(18.1427%,21.751404%,56.787109%);fill-opacity:1;" d="M 79.128906 25.125 L 78.285156 19.261719 L 74.765625 25.125 Z M 79.496094 27.550781 L 73.722656 27.550781 L 71.972656 30.769531 L 68.890625 30.769531 L 77.132812 16.199219 L 80.460938 16.199219 L 82.828125 30.769531 L 79.984375 30.769531 L 79.496094 27.550781 "/>
<path style=" stroke:none;fill-rule:nonzero;fill:rgb(18.1427%,21.751404%,56.787109%);fill-opacity:1;" d="M 84.734375 30.769531 L 87.789062 16.199219 L 90.78125 16.199219 L 88.246094 28.335938 L 95.660156 28.335938 L 95.152344 30.769531 L 84.734375 30.769531 "/>
<g clip-path="url(#clip1)" clip-rule="nonzero">
<path style=" stroke:none;fill-rule:nonzero;fill:rgb(18.1427%,21.751404%,56.787109%);fill-opacity:1;" d="M 126.125 26.160156 C 126.125 26.988281 126.328125 27.628906 126.730469 28.085938 C 127.132812 28.542969 127.609375 28.769531 128.15625 28.769531 C 128.628906 28.769531 129.085938 28.597656 129.527344 28.257812 C 129.964844 27.914062 130.328125 27.34375 130.621094 26.546875 C 130.910156 25.75 131.054688 25.011719 131.054688 24.332031 C 131.054688 23.539062 130.863281 22.929688 130.484375 22.507812 C 130.105469 22.082031 129.621094 21.871094 129.035156 21.871094 C 128.488281 21.871094 127.992188 22.066406 127.539062 22.457031 C 127.089844 22.847656 126.742188 23.421875 126.496094 24.175781 C 126.25 24.933594 126.125 25.59375 126.125 26.160156 Z M 124.398438 20.074219 L 127.117188 20.074219 L 126.886719 21.164062 C 127.464844 20.683594 128.011719 20.339844 128.515625 20.132812 C 129.023438 19.925781 129.566406 19.824219 130.144531 19.824219 C 131.257812 19.824219 132.152344 20.207031 132.832031 20.972656 C 133.507812 21.738281 133.847656 22.882812 133.847656 24.402344 C 133.847656 26.316406 133.261719 27.929688 132.097656 29.25 C 131.097656 30.378906 129.914062 30.941406 128.546875 30.941406 C 127.140625 30.941406 126.078125 30.371094 125.355469 29.230469 L 124.207031 34.738281 L 121.339844 34.738281 L 124.398438 20.074219 "/>
</g>
<path style=" stroke:none;fill-rule:nonzero;fill:rgb(18.1427%,21.751404%,56.787109%);fill-opacity:1;" d="M 136.835938 20.074219 L 139.515625 20.074219 L 139.085938 22.132812 C 140.085938 20.59375 141.167969 19.820312 142.332031 19.820312 C 142.746094 19.820312 143.1875 19.925781 143.664062 20.132812 L 142.5625 22.480469 C 142.304688 22.386719 142.027344 22.34375 141.734375 22.34375 C 141.238281 22.34375 140.738281 22.527344 140.230469 22.902344 C 139.71875 23.273438 139.320312 23.773438 139.035156 24.394531 C 138.746094 25.019531 138.464844 26.007812 138.183594 27.359375 L 137.484375 30.691406 L 134.613281 30.691406 L 136.835938 20.074219 "/>
<path style=" stroke:none;fill-rule:nonzero;fill:rgb(18.1427%,21.751404%,56.787109%);fill-opacity:1;" d="M 150.664062 24.519531 C 150.667969 24.394531 150.671875 24.296875 150.671875 24.230469 C 150.671875 23.445312 150.496094 22.855469 150.140625 22.460938 C 149.789062 22.070312 149.316406 21.871094 148.722656 21.871094 C 148.128906 21.871094 147.597656 22.09375 147.128906 22.542969 C 146.65625 22.988281 146.339844 23.648438 146.171875 24.523438 Z M 153.082031 26.269531 L 145.882812 26.269531 C 145.875 26.382812 145.875 26.472656 145.875 26.53125 C 145.875 27.238281 146.074219 27.808594 146.480469 28.242188 C 146.882812 28.675781 147.371094 28.890625 147.953125 28.890625 C 148.90625 28.890625 149.648438 28.398438 150.183594 27.410156 L 152.753906 27.839844 C 152.253906 28.875 151.585938 29.648438 150.746094 30.167969 C 149.910156 30.683594 148.972656 30.941406 147.933594 30.941406 C 146.507812 30.941406 145.347656 30.488281 144.453125 29.585938 C 143.558594 28.683594 143.113281 27.488281 143.113281 26.003906 C 143.113281 24.550781 143.515625 23.253906 144.324219 22.121094 C 145.421875 20.589844 146.992188 19.824219 149.03125 19.824219 C 150.332031 19.824219 151.363281 20.226562 152.132812 21.027344 C 152.898438 21.832031 153.28125 22.957031 153.28125 24.402344 C 153.28125 25.09375 153.214844 25.71875 153.082031 26.269531 "/>
<path style=" stroke:none;fill-rule:nonzero;fill:rgb(18.1427%,21.751404%,56.787109%);fill-opacity:1;" d="M 153.761719 27.722656 L 156.542969 27.28125 C 156.789062 27.867188 157.09375 28.28125 157.460938 28.527344 C 157.828125 28.769531 158.328125 28.890625 158.960938 28.890625 C 159.613281 28.890625 160.136719 28.742188 160.53125 28.449219 C 160.804688 28.25 160.941406 28.007812 160.941406 27.722656 C 160.941406 27.527344 160.871094 27.355469 160.730469 27.203125 C 160.585938 27.054688 160.1875 26.875 159.539062 26.660156 C 157.808594 26.089844 156.734375 25.636719 156.320312 25.300781 C 155.675781 24.78125 155.351562 24.101562 155.351562 23.261719 C 155.351562 22.421875 155.664062 21.699219 156.292969 21.09375 C 157.164062 20.246094 158.460938 19.820312 160.183594 19.820312 C 161.546875 19.820312 162.582031 20.070312 163.28125 20.570312 C 163.980469 21.070312 164.425781 21.75 164.609375 22.601562 L 161.960938 23.0625 C 161.820312 22.675781 161.59375 22.382812 161.28125 22.191406 C 160.855469 21.929688 160.34375 21.800781 159.742188 21.800781 C 159.140625 21.800781 158.710938 21.902344 158.449219 22.101562 C 158.183594 22.300781 158.050781 22.53125 158.050781 22.792969 C 158.050781 23.058594 158.1875 23.277344 158.453125 23.449219 C 158.617188 23.558594 159.15625 23.746094 160.0625 24.011719 C 161.464844 24.417969 162.398438 24.816406 162.871094 25.210938 C 163.539062 25.765625 163.871094 26.429688 163.871094 27.210938 C 163.871094 28.21875 163.449219 29.089844 162.601562 29.832031 C 161.753906 30.570312 160.5625 30.941406 159.023438 30.941406 C 157.488281 30.941406 156.304688 30.660156 155.46875 30.097656 C 154.628906 29.53125 154.0625 28.742188 153.761719 27.722656 "/>
<path style=" stroke:none;fill-rule:nonzero;fill:rgb(18.1427%,21.751404%,56.787109%);fill-opacity:1;" d="M 165.152344 27.722656 L 167.929688 27.28125 C 168.175781 27.867188 168.484375 28.28125 168.851562 28.527344 C 169.214844 28.769531 169.714844 28.890625 170.347656 28.890625 C 171.003906 28.890625 171.527344 28.742188 171.917969 28.449219 C 172.191406 28.25 172.328125 28.007812 172.328125 27.722656 C 172.328125 27.527344 172.257812 27.355469 172.117188 27.203125 C 171.972656 27.054688 171.574219 26.875 170.929688 26.660156 C 169.195312 26.089844 168.121094 25.636719 167.710938 25.300781 C 167.0625 24.78125 166.742188 24.101562 166.742188 23.261719 C 166.742188 22.421875 167.054688 21.699219 167.679688 21.09375 C 168.554688 20.246094 169.851562 19.820312 171.570312 19.820312 C 172.9375 19.820312 173.96875 20.070312 174.671875 20.570312 C 175.371094 21.070312 175.8125 21.75 176 22.601562 L 173.351562 23.0625 C 173.210938 22.675781 172.984375 22.382812 172.671875 22.191406 C 172.242188 21.929688 171.730469 21.800781 171.128906 21.800781 C 170.53125 21.800781 170.097656 21.902344 169.835938 22.101562 C 169.574219 22.300781 169.441406 22.53125 169.441406 22.792969 C 169.441406 23.058594 169.574219 23.277344 169.839844 23.449219 C 170.007812 23.558594 170.542969 23.746094 171.449219 24.011719 C 172.851562 24.417969 173.785156 24.816406 174.261719 25.210938 C 174.925781 25.765625 175.261719 26.429688 175.261719 27.210938 C 175.261719 28.21875 174.835938 29.089844 173.988281 29.832031 C 173.144531 30.570312 171.949219 30.941406 170.410156 30.941406 C 168.878906 30.941406 167.691406 30.660156 166.855469 30.097656 C 166.019531 29.53125 165.449219 28.742188 165.152344 27.722656 "/>
<path style=" stroke:none;fill-rule:nonzero;fill:rgb(18.1427%,21.751404%,56.787109%);fill-opacity:1;" d="M 111.835938 20.066406 L 115.46875 20.066406 L 116.78125 23.351562 L 119.199219 20.066406 L 122.796875 20.066406 L 118.5625 25.234375 L 121.226562 30.738281 L 117.519531 30.738281 L 116.015625 27.308594 L 113.300781 30.738281 L 109.613281 30.738281 L 114.28125 25.175781 L 111.835938 20.066406 "/>
<path style=" stroke:none;fill-rule:nonzero;fill:rgb(18.1427%,21.751404%,56.787109%);fill-opacity:1;" d="M 107.726562 24.394531 C 107.730469 24.269531 107.734375 24.171875 107.734375 24.105469 C 107.734375 23.320312 107.558594 22.730469 107.203125 22.335938 C 106.851562 21.945312 106.378906 21.746094 105.785156 21.746094 C 105.191406 21.746094 104.660156 21.96875 104.191406 22.417969 C 103.71875 22.863281 103.402344 23.523438 103.234375 24.398438 Z M 110.144531 26.144531 L 102.945312 26.144531 C 102.9375 26.257812 102.9375 26.347656 102.9375 26.40625 C 102.9375 27.113281 103.136719 27.683594 103.539062 28.117188 C 103.945312 28.546875 104.4375 28.765625 105.015625 28.765625 C 105.96875 28.765625 106.710938 28.273438 107.246094 27.285156 L 109.816406 27.714844 C 109.316406 28.75 108.648438 29.523438 107.8125 30.039062 C 106.972656 30.558594 106.035156 30.816406 104.996094 30.816406 C 103.570312 30.816406 102.410156 30.363281 101.515625 29.460938 C 100.621094 28.558594 100.175781 27.363281 100.175781 25.875 C 100.175781 24.421875 100.578125 23.128906 101.386719 21.996094 C 102.484375 20.464844 104.054688 19.699219 106.09375 19.699219 C 107.394531 19.699219 108.429688 20.097656 109.195312 20.902344 C 109.960938 21.707031 110.34375 22.832031 110.34375 24.277344 C 110.34375 24.96875 110.277344 25.59375 110.144531 26.144531 "/>
</g>
</svg>

<svg xmlns="http://www.w3.org/2000/svg" width="176pt" height="46.32" viewBox="0 0 176 34.74"><defs><clipPath id="a"><path d="M121 19h13v15.738h-13Zm0 0"/></clipPath></defs><path d="M0 30.668h30.84L36.336.004Zm0 0" style="stroke:none;fill-rule:nonzero;fill:#2e3791;fill-opacity:1"/><path d="m32.09 13.398.254-10.027-.844.715-.234 9.398-1.137 4.172h.004-.008.004l-1.945-3.554-1.04-6.344-.73.617.914 5.727v4.472l.027-.008q-.022.01-.046.02l.02-.008-2.684-3.148-2.31-3.61-.62.524 2.207 3.453 1.05 4.02.028-.012-.055.035.028-.024-3.586-2.421-2.27-2.864-.605.512 2.246 2.836 2.02 3.613-4.118-1.648-3.015-2.38-.61.516 3.106 2.45 2.847 3.011.032-.03c-.016.019-.032.034-.047.054l.015-.024-4.465-.773-4.628-2.04-.653.552 4.89 2.152 3.415 2.402.023-.039q-.02.047-.043.086l.02-.047-4.399-.304-6.77-1.832-.702.593 7.215 1.954 3.722 1.992-4.36.515-11.116-.632-.832.703 11.836.672 4.027 1.125 15.16-12.56z" style="stroke:none;fill-rule:nonzero;fill:#f3b012;fill-opacity:1"/><path d="M17.422 30.668h30.84L53.758.004Zm0 0" style="stroke:none;fill-rule:nonzero;fill:#ed212c;fill-opacity:1"/><path d="M62.54 22.8h.925q2.374 0 3.168-.3.796-.299 1.254-.953.457-.656.457-1.442 0-.526-.235-.867a1.3 1.3 0 0 0-.656-.488q-.422-.157-1.883-.156h-2.148Zm-1.661 7.97h-3.004l3.05-14.57h5.927q1.58 0 2.5.37a3.03 3.03 0 0 1 1.457 1.235c.359.57.535 1.258.535 2.05q.001 1.108-.426 2.149-.429 1.044-1.05 1.672c-.411.414-.86.734-1.337.949q-.713.322-1.926.492-.706.096-2.644.098h-1.922zM79.129 25.125l-.844-5.863-3.52 5.863Zm.367 2.426h-5.773l-1.75 3.219H68.89l8.242-14.57h3.328l2.367 14.57h-2.844zM84.734 30.77 87.79 16.2h2.992l-2.535 12.136h7.414l-.508 2.434z" style="stroke:none;fill-rule:nonzero;fill:#2e3791;fill-opacity:1"/><g clip-path="url(#a)"><path d="M126.125 26.16q.001 1.241.605 1.926.606.685 1.426.684.71-.001 1.371-.512.656-.516 1.094-1.711.434-1.195.434-2.215-.002-1.19-.57-1.824-.57-.638-1.45-.637-.819 0-1.496.586-.675.587-1.043 1.719-.37 1.136-.371 1.984m-1.727-6.086h2.72l-.231 1.09c.578-.48 1.125-.824 1.629-1.031a4.3 4.3 0 0 1 1.629-.309q1.668 0 2.687 1.149 1.015 1.149 1.016 3.43c0 1.913-.586 3.527-1.75 4.847q-1.5 1.692-3.551 1.691-2.108 0-3.192-1.71l-1.148 5.507h-2.867z" style="stroke:none;fill-rule:nonzero;fill:#2e3791;fill-opacity:1"/></g><path d="M136.836 20.074h2.68l-.43 2.059q1.5-2.311 3.246-2.313.62.001 1.332.313l-1.101 2.347a2.4 2.4 0 0 0-.829-.136c-.496 0-.996.183-1.504.558q-.767.558-1.195 1.493c-.289.625-.57 1.613-.851 2.964l-.7 3.332h-2.87zM150.664 24.52q.007-.188.008-.29 0-1.178-.531-1.77-.528-.587-1.418-.589-.89 0-1.594.672-.708.668-.957 1.98Zm2.418 1.75h-7.2c-.007.113-.007.203-.007.261q-.001 1.061.605 1.711c.403.434.891.649 1.473.649q1.429 0 2.23-1.48l2.57.429c-.5 1.035-1.167 1.808-2.007 2.328q-1.254.774-2.812.773-2.139-.001-3.48-1.355t-1.34-3.582c0-1.453.402-2.75 1.21-3.883q1.648-2.297 4.707-2.297c1.301 0 2.332.403 3.102 1.203q1.148 1.207 1.148 3.375 0 1.04-.199 1.868M153.762 27.723l2.781-.442q.368.878.918 1.246.55.364 1.5.364.978-.001 1.57-.442.41-.299.41-.726a.74.74 0 0 0-.21-.52q-.218-.221-1.192-.543-2.596-.855-3.219-1.36-.967-.778-.968-2.038t.941-2.168q1.307-1.273 3.89-1.274 2.048 0 3.098.75 1.052.752 1.328 2.032l-2.648.46c-.14-.386-.367-.68-.68-.87q-.637-.392-1.539-.391-.9 0-1.293.3-.398.3-.398.692c0 .266.137.484.402.656q.248.165 1.61.563c1.402.406 2.335.804 2.808 1.199q1.001.83 1 2 .001 1.51-1.27 2.621-1.27 1.108-3.578 1.11-2.301 0-3.554-.844c-.84-.567-1.406-1.356-1.707-2.375M165.152 27.723l2.778-.442q.37.878.922 1.246.546.364 1.496.364.985-.001 1.57-.442.41-.299.41-.726a.74.74 0 0 0-.21-.52c-.145-.148-.544-.328-1.188-.543q-2.603-.855-3.22-1.36c-.648-.519-.968-1.198-.968-2.038q0-1.26.938-2.168 1.313-1.273 3.89-1.274c1.368 0 2.399.25 3.102.75q1.048.752 1.328 2.032l-2.648.46c-.141-.386-.368-.68-.68-.87q-.643-.392-1.543-.391-.899 0-1.293.3t-.395.692q0 .398.399.656.25.165 1.61.563c1.402.406 2.335.804 2.812 1.199.664.555 1 1.219 1 2q-.001 1.51-1.274 2.621c-.843.738-2.039 1.11-3.578 1.11-1.531 0-2.719-.282-3.555-.844-.835-.567-1.406-1.356-1.703-2.375M111.836 20.066h3.633l1.312 3.286 2.418-3.286h3.598l-4.234 5.168 2.664 5.504h-3.707l-1.504-3.43-2.715 3.43h-3.688l4.668-5.562zM107.727 24.395q.006-.188.007-.29.001-1.178-.53-1.77-.528-.587-1.419-.589-.89 0-1.594.672-.706.668-.957 1.98Zm2.418 1.75h-7.2c-.007.113-.007.203-.007.261q-.001 1.061.601 1.711c.406.43.898.649 1.477.649q1.428 0 2.23-1.48l2.57.429q-.75 1.551-2.004 2.324-1.259.779-2.816.777-2.139-.001-3.48-1.355t-1.34-3.586q-.001-2.18 1.21-3.879 1.648-2.297 4.708-2.297 1.952-.002 3.101 1.203 1.149 1.207 1.149 3.375 0 1.04-.2 1.868" style="stroke:none;fill-rule:nonzero;fill:#2e3791;fill-opacity:1"/></svg>
